Simply-Red-Circles/scalable/apps/linssid48.svg

<svg xmlns="http://www.w3.org/2000/svg" width="48" height="48" viewBox="0 0 12.7 12.7"><path d="M6.344.072a6.29 6.29 0 0 0-6.29 6.29 6.29 6.29 0 0 0 6.29 6.289 6.29 6.29 0 0 0 6.29-6.29 6.29 6.29 0 0 0-6.29-6.29zm-.018.937a5.407 5.407 0 0 1 5.407 5.407 5.407 5.407 0 0 1-5.407 5.407A5.407 5.407 0 0 1 .92 6.416 5.407 5.407 0 0 1 6.326 1.01zM8.31 2.357v.001l-.353.707A3.153 3.153 0 0 1 9.7 5.882a3.153 3.153 0 0 1-1.743 2.82l.35.701a3.941 3.941 0 0 0 2.181-3.52A3.941 3.941 0 0 0 8.31 2.357zm-3.917.004a3.941 3.941 0 0 0-2.18 3.52A3.941 3.941 0 0 0 4.39 9.407l.353-.706A3.153 3.153 0 0 1 3 5.882a3.153 3.153 0 0 1 1.743-2.82l-.35-.7zm3.212 1.407l-.353.706a1.577 1.577 0 0 1 .873 1.408 1.577 1.577 0 0 1-.872 1.41l.351.702a2.365 2.365 0 0 0 1.31-2.112 2.365 2.365 0 0 0-1.309-2.114zm-2.507.002a2.365 2.365 0 0 0-1.31 2.112 2.365 2.365 0 0 0 1.309 2.115l.352-.706a1.577 1.577 0 0 1-.872-1.41 1.577 1.577 0 0 1 .872-1.409l-.351-.702zM6.35 4.897a.985.985 0 0 0-.985.985.985.985 0 0 0 .59.903v4.582a3.941 5.43 0 0 0 .395.033 3.941 5.43 0 0 0 .394-.027V6.785a.985.985 0 0 0 .591-.903.985.985 0 0 0-.985-.985z" fill="#a02c2c"/></svg>

<?xml version="1.0" encoding="UTF-8" standalone="no"?>
<svg
   xmlns:dc="http://purl.org/dc/elements/1.1/"
   xmlns:cc="http://creativecommons.org/ns#"
   xmlns:rdf="http://www.w3.org/1999/02/22-rdf-syntax-ns#"
   xmlns:svg="http://www.w3.org/2000/svg"
   xmlns="http://www.w3.org/2000/svg"
   xmlns:sodipodi="http://sodipodi.sourceforge.net/DTD/sodipodi-0.dtd"
   xmlns:inkscape="http://www.inkscape.org/namespaces/inkscape"
   width="48"
   height="48"
   viewBox="0 0 12.7 12.7"
   version="1.1"
   id="svg4"
   sodipodi:docname="linssid48.svg"
   inkscape:version="0.92.4 (5da689c313, 2019-01-14)">
  <metadata
     id="metadata10">
    <rdf:RDF>
      <cc:Work
         rdf:about="">
        <dc:format>image/svg+xml</dc:format>
        <dc:type
           rdf:resource="http://purl.org/dc/dcmitype/StillImage" />
        <dc:title></dc:title>
      </cc:Work>
    </rdf:RDF>
  </metadata>
  <defs
     id="defs8" />
  <sodipodi:namedview
     pagecolor="#ffffff"
     bordercolor="#666666"
     borderopacity="1"
     objecttolerance="10"
     gridtolerance="10"
     guidetolerance="10"
     inkscape:pageopacity="0"
     inkscape:pageshadow="2"
     inkscape:window-width="1087"
     inkscape:window-height="480"
     id="namedview6"
     showgrid="false"
     inkscape:zoom="4.9166667"
     inkscape:cx="2.1355932"
     inkscape:cy="24"
     inkscape:window-x="0"
     inkscape:window-y="25"
     inkscape:window-maximized="0"
     inkscape:current-layer="svg4" />
  <path
     d="m 6.344,0.072 a 6.29,6.29 0 0 0 -6.29,6.29 6.29,6.29 0 0 0 6.29,6.289 6.29,6.29 0 0 0 6.29,-6.29 6.29,6.29 0 0 0 -6.29,-6.29 z M 6.326,1.009 A 5.407,5.407 0 0 1 11.733,6.416 5.407,5.407 0 0 1 6.326,11.823 5.407,5.407 0 0 1 0.92,6.416 5.407,5.407 0 0 1 6.326,1.01 Z M 8.31,2.357 V 2.358 L 7.957,3.065 A 3.153,3.153 0 0 1 9.7,5.882 3.153,3.153 0 0 1 7.957,8.702 l 0.35,0.701 A 3.941,3.941 0 0 0 10.488,5.883 3.941,3.941 0 0 0 8.31,2.357 Z M 4.393,2.361 A 3.941,3.941 0 0 0 2.213,5.881 3.941,3.941 0 0 0 4.39,9.407 L 4.743,8.701 A 3.153,3.153 0 0 1 3,5.882 3.153,3.153 0 0 1 4.743,3.062 l -0.35,-0.7 z M 7.605,3.768 7.252,4.474 A 1.577,1.577 0 0 1 8.125,5.882 1.577,1.577 0 0 1 7.253,7.292 L 7.604,7.994 A 2.365,2.365 0 0 0 8.914,5.882 2.365,2.365 0 0 0 7.605,3.768 Z M 5.098,3.77 A 2.365,2.365 0 0 0 3.788,5.882 2.365,2.365 0 0 0 5.097,7.997 L 5.449,7.291 A 1.577,1.577 0 0 1 4.577,5.881 1.577,1.577 0 0 1 5.449,4.472 Z M 6.35,4.897 a 0.985,0.985 0 0 0 -0.985,0.985 0.985,0.985 0 0 0 0.59,0.903 v 4.582 A 3.941,5.43 0 0 0 6.35,11.4 3.941,5.43 0 0 0 6.744,11.373 V 6.785 A 0.985,0.985 0 0 0 7.335,5.882 0.985,0.985 0 0 0 6.35,4.897 Z"
     id="path2"
     inkscape:connector-curvature="0"
     style="fill:#a02c2c" />
</svg>
